Catalina-dark/actions/16/resource-calendar-child.svg

<?xml version="1.0" encoding="UTF-8" standalone="no"?>
<svg
   xmlns:dc="http://purl.org/dc/elements/1.1/"
   xmlns:cc="http://creativecommons.org/ns#"
   xmlns:rdf="http://www.w3.org/1999/02/22-rdf-syntax-ns#"
   xmlns:svg="http://www.w3.org/2000/svg"
   xmlns="http://www.w3.org/2000/svg"
   xmlns:sodipodi="http://sodipodi.sourceforge.net/DTD/sodipodi-0.dtd"
   xmlns:inkscape="http://www.inkscape.org/namespaces/inkscape"
   width="16"
   height="16"
   viewBox="0 0 16 16"
   version="1.1"
   id="svg7"
   sodipodi:docname="resource-calendar-child.svg"
   inkscape:version="0.92.4 5da689c313, 2019-01-14">
  <metadata
     id="metadata11">
    <rdf:RDF>
      <cc:Work
         rdf:about="">
        <dc:format>image/svg+xml</dc:format>
        <dc:type
           rdf:resource="http://purl.org/dc/dcmitype/StillImage" />
      </cc:Work>
    </rdf:RDF>
  </metadata>
  <sodipodi:namedview
     pagecolor="#ffffff"
     bordercolor="#666666"
     borderopacity="1"
     objecttolerance="10"
     gridtolerance="10"
     guidetolerance="10"
     inkscape:pageopacity="0"
     inkscape:pageshadow="2"
     inkscape:window-width="640"
     inkscape:window-height="480"
     id="namedview9"
     showgrid="false"
     inkscape:zoom="14.75"
     inkscape:cx="6.8135593"
     inkscape:cy="8"
     inkscape:window-x="0"
     inkscape:window-y="26"
     inkscape:window-maximized="0"
     inkscape:current-layer="svg7" />
  <defs
     id="defs3">
    <style
       id="current-color-scheme"
       type="text/css">
   .ColorScheme-Text { color:#5c616c; } .ColorScheme-Highlight { color:#5294e2; }
  </style>
  </defs>
  <path
     style="fill:#f1f6f8;fill-opacity:0.8509804"
     class="ColorScheme-Text"
     d="M 2.9960938 0.99609375 L 3 1 C 0.75 1 1 3 1 3 L 1 15 L 6.9960938 15 L 6.9960938 13 L 3 13 L 3 3 L 13 3 L 13 7 L 14.996094 7 L 14.996094 2.9960938 C 14.996094 0.99609375 12.996094 0.99609375 12.996094 0.99609375 L 2.9960938 0.99609375 z M 4 4 L 4 6 L 6 6 L 6 4 L 4 4 z M 7 4 L 7 6 L 9 6 L 9 4 L 7 4 z M 10 4 L 10 6 L 12 6 L 12 4 L 10 4 z M 4 7 L 4 9 L 6 9 L 6 7 L 4 7 z M 8.9960938 8.9960938 C 8.4420938 8.9960938 7.9960938 9.5305325 7.9960938 10.195312 L 7.9960938 13.796875 C 7.9960938 14.461675 8.4420938 14.996094 8.9960938 14.996094 L 13.996094 14.996094 C 14.543164 14.996094 14.981228 14.473543 14.992188 13.820312 L 14.992188 14.996094 L 14.996094 14.996094 L 14.996094 10.175781 C 14.986094 9.5157813 14.546094 8.9960938 13.996094 8.9960938 L 8.9960938 8.9960938 z M 4 10 L 4 12 L 6 12 L 6 10 L 4 10 z"
     id="path5" />
</svg>

<svg width="16" height="16" version="1.1" viewBox="0 0 16 16" xmlns="http://www.w3.org/2000/svg">
<defs>
<style id="current-color-scheme" type="text/css">.ColorScheme-Text { color:#5c616c; } .ColorScheme-Highlight { color:#5294e2; }</style>
</defs>
<path class="ColorScheme-Text" d="m2.9961 0.99609 0.0039062 0.0039062c-2.25 0-2 2-2 2v12h5.9961v-2h-3.9961v-10h10v4h1.9961v-4.0039c0-2-2-2-2-2h-10zm1.0039 3.0039v2h2v-2h-2zm3 0v2h2v-2h-2zm3 0v2h2v-2h-2zm-6 3v2h2v-2h-2zm4.9961 1.9961c-0.554 0-1 0.53444-1 1.1992v3.6016c0 0.6648 0.446 1.1992 1 1.1992h5c0.54707 0 0.98513-0.52255 0.99609-1.1758v1.1758h0.003906v-4.8203c-0.01-0.66-0.45-1.1797-1-1.1797h-5zm-4.9961 1.0039v2h2v-2h-2z" fill="#dedede" fill-opacity=".85098"/>
</svg>
